src/icons/cloudy.svg

<svg xmlns="http://www.w3.org/2000/svg" viewBox="0 0 392.198 392.198"><path d="M265.177 212.301c39.698-2.295 73.74 28.027 76.035 67.725 2.295 39.698-28.027 73.74-67.725 76.035-2.768.16-5.542.16-8.31 0h-209C25.139 356.048-.013 330.876 0 299.838c.013-31.02 25.157-56.164 56.177-56.177h4c-6.627-47.839 26.781-91.993 74.62-98.62 47.839-6.627 91.993 26.781 98.62 74.62a71.564 71.564 0 0131.76-7.36z" fill="#50d1ef"/><path d="M221.057 72.061a7.28 7.28 0 11-14.08 3.64l-8-30.24a7.28 7.28 0 1114.08-3.64l8 30.24zm-53.8 26.32a7.297 7.297 0 01-.04 10.32 7.297 7.297 0 01-10.32-.04l-22-22.24a7.28 7.28 0 1110.359-10.12l22.001 22.08zm185.48 124.72a7.3 7.3 0 114-14.04l30.16 8.24a7.3 7.3 0 11-4 14.04l-30.16-8.24zm4-59.76a7.28 7.28 0 01-3.64-14.08l30.24-8a7.28 7.28 0 013.64 14.08l-30.24 8zm-26.24-53.76a7.311 7.311 0 11-10.32-10.36l22.24-22a7.297 7.297 0 0110.32.04 7.297 7.297 0 01-.04 10.32l-22.2 22zm-49.72-33.28a7.3 7.3 0 11-14.04-4l8.24-30.16a7.3 7.3 0 1114.04 4l-8.24 30.16zm-8 36c39.113 15.593 58.179 59.94 42.587 99.053a76.174 76.174 0 01-7.987 14.947 72 72 0 00-74.16-6.08c-4.736-32.194-26.934-59.107-57.64-69.88 17.102-36.471 59.689-53.263 97.08-38.28l.12.24z" fill="#ffed00"/></svg>

<?xml version="1.0" encoding="iso-8859-1"?>
<!-- Generator: Adobe Illustrator 19.0.0, SVG Export Plug-In . SVG Version: 6.00 Build 0)  -->
<svg version="1.1" id="Capa_1" xmlns="http://www.w3.org/2000/svg" xmlns:xlink="http://www.w3.org/1999/xlink" x="0px" y="0px"
	 viewBox="0 0 392.198 392.198" style="enable-background:new 0 0 392.198 392.198;" xml:space="preserve">
<g>
	<path style="fill:#50D1EF;" d="M265.177,212.301c39.698-2.295,73.74,28.027,76.035,67.725c2.295,39.698-28.027,73.74-67.725,76.035
		c-2.768,0.16-5.542,0.16-8.31,0h-209C25.139,356.048-0.013,330.876,0,299.838c0.013-31.02,25.157-56.164,56.177-56.177h4
		c-6.627-47.839,26.781-91.993,74.62-98.62c47.839-6.627,91.993,26.781,98.62,74.62
		C243.296,214.797,254.165,212.278,265.177,212.301L265.177,212.301z"/>
	<path style="fill:#FFED00;" d="M221.057,72.061c1.194,3.839-0.951,7.919-4.79,9.113c-3.839,1.194-7.919-0.951-9.113-4.79
		c-0.07-0.225-0.129-0.453-0.177-0.683l-8-30.24c-1.194-3.839,0.951-7.919,4.79-9.113s7.919,0.951,9.113,4.79
		c0.07,0.225,0.129,0.453,0.177,0.683L221.057,72.061z M167.257,98.381c2.839,2.861,2.821,7.481-0.04,10.32
		c-2.861,2.839-7.481,2.821-10.32-0.04l-22-22.24c-3.091-2.571-3.512-7.162-0.941-10.252c2.571-3.091,7.162-3.512,10.252-0.941
		c0.385,0.321,0.737,0.68,1.048,1.073L167.257,98.381z M352.737,223.101c-3.877-1.105-6.125-5.143-5.02-9.02
		c1.105-3.877,5.143-6.125,9.02-5.02l30.16,8.24c3.877,1.105,6.125,5.143,5.02,9.02c-1.105,3.877-5.143,6.125-9.02,5.02l0,0
		L352.737,223.101z M356.737,163.341c-3.937,0.817-7.79-1.713-8.607-5.65c-0.761-3.67,1.388-7.318,4.967-8.43l30.24-8
		c3.937-0.817,7.79,1.713,8.607,5.65c0.761,3.67-1.388,7.318-4.967,8.43L356.737,163.341z M330.497,109.581
		c-2.861,2.85-7.49,2.841-10.34-0.02c-2.85-2.861-2.841-7.49,0.02-10.34l22.24-22c2.861-2.839,7.481-2.821,10.32,0.04
		c2.839,2.861,2.821,7.481-0.04,10.32L330.497,109.581z M280.777,76.301c-1.105,3.877-5.143,6.125-9.02,5.02
		c-3.877-1.105-6.125-5.143-5.02-9.02l0,0l8.24-30.16c1.105-3.877,5.143-6.125,9.02-5.02c3.877,1.105,6.125,5.143,5.02,9.02
		L280.777,76.301z M272.777,112.301c39.113,15.593,58.179,59.94,42.587,99.053c-2.098,5.264-4.777,10.277-7.987,14.947
		c-21.676-15.633-50.227-17.974-74.16-6.08c-4.736-32.194-26.934-59.107-57.64-69.88c17.102-36.471,59.689-53.263,97.08-38.28
		L272.777,112.301z"/>
</g>
<g>
</g>
<g>
</g>
<g>
</g>
<g>
</g>
<g>
</g>
<g>
</g>
<g>
</g>
<g>
</g>
<g>
</g>
<g>
</g>
<g>
</g>
<g>
</g>
<g>
</g>
<g>
</g>
<g>
</g>
</svg>
